X:1
T:He Knows It All
T:He Knows It All
T:C. M. Davis
T:Ophelia Guyon Browning, 1905
T:Public Domain Courtesy of the Cyber Hymnal™
T:Public Domain Courtesy of the Cyber Hymnal™
C:C. M. Davis
Z:Public Domain
Z:Courtesy of the Cyber Hymnal™
%%score ( 1 2 ) ( 3 4 )
L:1/8
Q:1/4=103
M:4/4
K:F
V:1 treble 
V:2 treble 
V:3 bass 
V:4 bass 
V:1
 [A,C][A,F]>[B,G] | [CA]4- [CA][_EA] [DB]>[_DF] | [CA]4- [CA][FA] [EA]>[DA] | %3
w: 1.~I love to|think * my Fa- ther|knows * Why I have|
w: 2.~I love to|think * my Fa- ther|knows * The thorns I|
w: 3.~I love to|think * my Fa- ther|knows * The strength or|
 [EB]4- [EB][CB] [CB]>[DB] | [CA]4- [CA][Cc] [D=B]>[E_B] | [FA]4- [FA][A,A] [=B,^G]>[^C=G] | %6
w: missed * the path I|chose, * And that I|soon * shall clear- ly|
w: pluck * with ev- ery|rose * The dai- ly|griefs * I seek to|
w: weak- * ness of my|foes, * And that I|need * but stand and|
 [DF]4- [DF][DF] [DF]>[DG] | [CA]4- [CA][=B,A] [B,G]>[_B,C] | [A,F]4- !fermata![A,F] || %9
w: see * The way He|led * was best for|me. *|
w: hide * From the dear|souls * I walk be-|side. *|
w: see * Each con- flict|end * in vic- to-|ry. *|
"^Refrain" [FA][CA]>[DA] | [EB]4- [EB][Ed] [Bd]>[Ac] | [FA]4- [FA][FA] [CA]>[DA] | %12
w: |||
w: He knows it|all, * He knows it|all, * My Fa- ther|
w: |||
 [EB]4- [EB][DB] [EB]>[DB] | [CA]4- [CA][FA] [CA]<[B,G] | [A,F]4- [A,F]F [EG]>[_EA] | %15
w: |||
w: knows, * He knows it|all; * Thy bit- ter|tears * how fast they|
w: |||
 [DB]6 [_DB]2 | [CA]4 !fermata!z C2 | [=B,A] [B,G]3 [_B,G]3 [B,C] | [A,F]4- [A,F] |] %19
w: ||||
w: fall! He|knows, my|Fa- ther knows it|all. *|
w: ||||
V:2
 x3 | x8 | x8 | x8 | x8 | x8 | x8 | x8 | x5 || x3 | x8 | x8 | x8 | x8 | x5 F x2 | x8 | x5 C2 | x8 | %18
 x5 |] %19
V:3
 z z2 | z (F,,A,,>C, F,) z z2 | z (F,,A,,>C, F,) z z2 | z (G,,B,,>C, E,) z z2 | %4
w: |~ * * *|~ * * *|~ * * *|
 z (F,,A,,>C, F,) z z2 | z (F,E,>F, C,) z z2 | z (D,^C,>D, A,,) z z2 | z (F,,A,,>C, F,) z z2 | %8
w: ~ * * *|~ * * *|~ * * *|~ * * *|
 z (D,C,>A,, !fermata!F,,) || z z2 | z [C,G,] [C,G,]>[C,G,] [C,G,]2 z2 | %11
w: ~ * * *||He knows it all,|
 z [F,C] [A,C]>[G,C] [F,C]2 z2 | z [C,G,] [C,G,]>[C,G,] [C,G,]2 z2 | %13
w: He knows it all,|My Fa- ther knows,|
 z [F,,F,] [A,,F,]>[C,F,] F,2 z2 | z [F,,C,] [F,,C,]<[F,,C,] [F,,C,]2 z2 | %15
w: He knows it all;|Thy bit- ter tears,|
 z [B,,F,] [B,,F,]>[B,,F,] [B,,F,]2 [B,,F,]2 | [C,F,]4 !fermata!z [C,A,]2 | %17
w: how fast they fall! *||
 [G,,G,] [G,,G,]3 [C,E,]3 [C,E,] | [F,,F,]4- [F,,F,] |] %19
w: ||
V:4
 x3 | x8 | x8 | x8 | x8 | x8 | x8 | x8 | x5 || x3 | x8 | x8 | x8 | x4 F,2 x2 | x8 | x8 | x7 | x8 | %18
 x5 |] %19

